X:5140
T:Ribchester Bridge Hornpipe
A:North-West
M:3/2
O:England
R:Triple Hornpipe
Z:Richard Robinson 
%%TUNEURL: http://www.leeds.ac.uk/music/Info/RRTuneBk/gettune/000004eb.html
%%ID:000004eb
K:Bb
F2d2 E2d2 D4| C2c4G2 ABcA| F2d2 E2d2 D4| B,2B4G2 ABcA::
d2B4F2 D4| C2c4G2 ABcA| d2B4F2 D4| B,2B4G2 ABcA::
B2g2 f2ed edcB| ABcd c2G2 ABcA| B2g2 f2ed gfga| b2B4G2 ABcA::
B2g2 f2ed edcB| ABcd c2G2 ABcA| F2B2 E2B2 D4| B,2B4G2 ABcA::
F2B2 E2B2 DEFD| C2c2 G2B2 ABcA| F2B2 E2B2 DEFD| B,2B2 G2B2 ABcA::
dcBA BAGF GFED| C2c2 G2B2 ABcA| dcBA BAGF DEFD| B,2B2 B2G2 ABcA::
d2B2 B2B,2 DEFD| C2c2 c2G2 ABcA| d2B2 B2F2 DEFD| B,2B2 G2B2 ABcA::
d2B2 F2B2 d2B2 | G2c2 G2B2 ABcA| d2B2 F2B2 edcB| F2B2 B2G2 ABcA:|
